X:302
T: SIST GEWISS UND KEIN GEDICHT
N: E0904
O: Europa, Mitteleuropa, Deutschland
R: Ehestands - Lied
M: 3/4
L: 1/16
K: G
D3D | G6G2F2G2 | A8
G2B2 | d4G4A2F2 | G8
B2c2 | d4d4A2c2 | B2A2G4
B2c2 | d4d4A2c2 | B2A2G4
D3D | G6G2F2G2 | A6
c2B2c2 | d4B2c2B2c2 | d4B2G2A2F2 | G4z4

@@@ Tune index: 4615
